X:1
T:Monogram -- Hornpipe
R:hornpipe
B:Cole's 1000 Fiddle Tunes
M:2/4
L:1/16
K:G
vBc|{e}d^cdB GBdg|gfaf d"4"edc|(cB)dB (BA)cA|(AG)BA (GF)ED|
{e}d^cdB GBdg|gfaf df"1"a"3"c'|\
("3"c'"2"b)(ba) ("1"a"2"g)(gf)|g2g2g2:|
|:vfg|{b}a^gaf df"1"a"2"b|"3"c'"2"b"4"d'"2"b "2"g2d2|\
"0"egdg egdg|eg"4"c'b agfe|
{e}d^cdB GBdg|gfaf df"1"a"3"c'|(c'b)(ba) (ag)(gf)|g2g2g2:|
